!!!OTL: 510e. Gruss.
!!!ARE: Europa, Mitteleuropa, Deutschland, Berlin
!!!SCT: E0510B
!!!TXL: @@DE
!!!YEM: Copyright 1995, estate of Helmut Schaffrath.
**kern	**text
*ICvox	*
*M3/8	*
*k[f#]	*
*G:	*
=1	=1
!LO:TX:a:t=Einzelne.	!
!LO:TX:a:t=äßig langsam.	!
!LO:TX:a:t=Studentenmelodie.	!
{8.b	Wenn
16a	ʒu
8b	meim
=2	=2
8cc	Schätʒel
8cc	.
8d;}	kommſt,
=3	=3
{8.cc	ſag,
16cc	ich
8ee	laß
=4	=4
4dd	grü-
8b;}	-ßen;
=5	=5
{8.b	Wenn
16a	ʒu
8b	meim
=6	=6
8cc	Schätʒel
8cc	.
8d;}	kommſt,
=7	=7
{8.cc	ſag,
16cc	ich
8ee	laß
=8	=8
4dd	grü-
8b;}	-ßen;
=9	=9
{8.a	wenn
16b/	ſie
8a	fragt,
=10	=10
8.a	wie
16b/	mirs
8a}	geht,
=11	=11
{8.a	wie
16b/	es
16aL	ſteht
16bJ	.
=12	=12
4.cc	wie
=13	=13
4.b	mirs
=14	=14
4.a;}	geht
=15	=15
!LO:TX:a:t=Bewegt.	!
{8b	ſag,
8b	auf
8b	ʒwei
=16	=16
8b	Fü-
4dd}	-ßen,
=17	=17
{8dd	hei
16cc	di-
16b	-de-
16cc	-ri-
16a	-de
=18	=18
8g	ral-
8gg	-la-
8dd}	-la!
=19	=19
{8b	ſag,
8b	auf
8b	ʒwei
=20	=20
8b	Fü-
4dd}	-ßen,
=21	=21
{8dd	hei
16cc	di-
16b	-de-
16cc	-ri-
16a	-de-
=22	=22
4g	-ra!
8r}	.
=23	=23
!LO:TX:a:t=Vom Chor wiederholt.	!
{8b	ſag,
8b	auf
8b	ʒwei
=24	=24
8b	Fü-
4dd}	-ßen,
=25	=25
{8dd	hei
16cc	di-
16b	-de-
16cc	-ri-
16a	-de
=26	=26
8g	ral-
8gg	-la-
8dd}	-la!
=27	=27
{8b	ſag,
8b	auf
8b	ʒwei
=28	=28
8b	Fü-
4dd}	-ßen,
=29	=29
{8dd	hei
16cc	di-
16b	-de-
16cc	-ri-
16a	-de-
=30	=30
4g	-ra!
8r}	.
==	==
!!!AGN: Liebes - Lied; Studenten - Lied
!!!ONB: ESAC (Essen Associative Code) Database: ERK1
!!!AMT: simple triple
!!!AIN: vox
!!!EED: Helmut Schaffrath
!!!EEV: 1.0
!!!GTL: Liebeslieder [Neuere (aus dem 18. bis 19. Jahrh.) - Liebeslust]
!!!URL-scan: https://rosdok.uni-rostock.de/mcrviewer/recordIdentifier/rosdok_ppn745177662/iview2/phys_0334.iview2?x=-128.77276441889285&y=1992.0455410883296&scale=0.5870222003877487&rotation=0&layout=singlePageLayout
!!!ENC: Anna Maria Matuszewska
!!!EEV: 2024/10/12
*-	*-
